X: 28573
T: Murphy's
R: polka
M: 2/4
K: Edorian
E>F GA|BE EG|F/E/D/ F/ A>G|FD DF|
E>F GA|BE EF|GE F/E/D|1 E2 B,2:|2 E2 E>F|
|:GB DB|GB BA/G/|FA D>E|FG A2|
G>F EF|GA BA|GE F/E/D|1 E2 E>F:|2 E2 B,2|

